assets/flags/KR.svg

<?xml version="1.0" encoding="UTF-8"?>
<svg width="21px" height="15px" viewBox="0 0 21 15" version="1.1" xmlns="http://www.w3.org/2000/svg" xmlns:xlink="http://www.w3.org/1999/xlink">
    <!-- Generator: sketchtool 46 (44423) - http://www.bohemiancoding.com/sketch -->
    <title>KR</title>
    <desc>Created with sketchtool.</desc>
    <defs>
        <linearGradient x1="50%" y1="0%" x2="50%" y2="100%" id="linearGradient-1">
            <stop stop-color="#FFFFFF" offset="0%"></stop>
            <stop stop-color="#F0F0F0" offset="100%"></stop>
        </linearGradient>
        <linearGradient x1="50%" y1="0%" x2="50%" y2="100%" id="linearGradient-2">
            <stop stop-color="#E01B41" offset="0%"></stop>
            <stop stop-color="#C51335" offset="100%"></stop>
        </linearGradient>
        <circle id="path-3" cx="3.5" cy="3.5" r="3.5"></circle>
        <linearGradient x1="50%" y1="0%" x2="50%" y2="100%" id="linearGradient-5">
            <stop stop-color="#0E4B9C" offset="0%"></stop>
            <stop stop-color="#053677" offset="100%"></stop>
        </linearGradient>
        <linearGradient x1="50%" y1="0%" x2="50%" y2="100%" id="linearGradient-6">
            <stop stop-color="#262626" offset="0%"></stop>
            <stop stop-color="#0D0D0D" offset="100%"></stop>
        </linearGradient>
    </defs>
    <g id="Symbols" stroke="none" stroke-width="1" fill="none" fill-rule="evenodd">
        <g id="KR">
            <rect id="FlagBackground" fill="url(#linearGradient-1)" x="0" y="0" width="21" height="15"></rect>
            <g id="Group-2" transform="translate(7.000000, 4.000000)">
                <mask id="mask-4" fill="white">
                    <use xlink:href="#path-3"></use>
                </mask>
                <use id="Mask" fill="url(#linearGradient-2)" xlink:href="#path-3"></use>
                <path d="M-4.4797499e-14,4 C0.999999977,4.93749998 2.5,5.5 3.5,4 C4.5,2.5 6.5,2.49999995 7,4 C7.5,5.50000005 7,7 7,7 L-4.4797499e-14,7 C-4.4797499e-14,7 -0.999999977,3.06250002 -4.4797499e-14,4 Z" id="Rectangle-277" fill="url(#linearGradient-5)" mask="url(#mask-4)"></path>
            </g>
            <path d="M14.2080162,3.92247241 C14.1373849,3.80013553 14.1728069,3.64745314 14.2986618,3.57479078 L14.7276176,3.32713301 C14.8483111,3.25745063 15.0031225,3.29963704 15.0740416,3.42247241 L16.3182633,5.57752759 C16.3888945,5.69986447 16.3534725,5.85254686 16.2276176,5.92520922 L15.7986618,6.17286699 C15.6779684,6.24254937 15.5231569,6.20036296 15.4522379,6.07752759 L14.2080162,3.92247241 Z M15.5070543,3.17247241 C15.4364231,3.05013553 15.471845,2.89745314 15.5976999,2.82479078 L16.0266558,2.57713301 C16.1473492,2.50745063 16.3021606,2.54963704 16.3730797,2.67247241 L17.6173014,4.82752759 C17.6879326,4.94986447 17.6525106,5.10254686 17.5266558,5.17520922 L17.0976999,5.42286699 C16.9770065,5.49254937 16.822195,5.45036296 16.751276,5.32752759 L15.5070543,3.17247241 Z M3.38269863,10.1724724 C3.3120674,10.0501355 3.34748936,9.89745314 3.47334425,9.82479078 L3.9023001,9.57713301 C4.02299352,9.50745063 4.17780499,9.54963704 4.24872403,9.67247241 L5.49294572,11.8275276 C5.56357695,11.9498645 5.52815499,12.1025469 5.4023001,12.1752092 L4.97334425,12.422867 C4.85265082,12.4925494 4.69783935,12.450363 4.62692032,12.3275276 L3.38269863,10.1724724 Z M4.68173673,9.42247241 C4.6111055,9.30013553 4.64652747,9.14745314 4.77238235,9.07479078 L5.2013382,8.82713301 C5.32203163,8.75745063 5.4768431,8.79963704 5.54776214,8.92247241 L6.79198382,11.0775276 C6.86261506,11.1998645 6.82719309,11.3525469 6.7013382,11.4252092 L6.27238235,11.672867 C6.15168893,11.7425494 5.99687746,11.700363 5.92595842,11.5775276 L4.68173673,9.42247241 Z M15.4522379,8.92247241 C15.5228691,8.80013553 15.6728069,8.75447065 15.7986618,8.82713301 L16.2276176,9.07479078 C16.3483111,9.14447316 16.3891823,9.29963704 16.3182633,9.42247241 L15.0740416,11.5775276 C15.0034103,11.6998645 14.8534725,11.7455293 14.7276176,11.672867 L14.2986618,11.4252092 C14.1779684,11.3555268 14.1370971,11.200363 14.2080162,11.0775276 L15.4522379,8.92247241 Z M16.751276,9.67247241 C16.8219072,9.55013553 16.971845,9.50447065 17.0976999,9.57713301 L17.5266558,9.82479078 C17.6473492,9.89447316 17.6882204,10.049637 17.6173014,10.1724724 L16.3730797,12.3275276 C16.3024485,12.4498645 16.1525106,12.4955293 16.0266558,12.422867 L15.5976999,12.1752092 C15.4770065,12.1055268 15.4361352,11.950363 15.5070543,11.8275276 L16.751276,9.67247241 Z M4.62692032,2.67247241 C4.69755155,2.55013553 4.84748936,2.50447065 4.97334425,2.57713301 L5.4023001,2.82479078 C5.52299352,2.89447316 5.56386476,3.04963704 5.49294572,3.17247241 L4.24872403,5.32752759 C4.1780928,5.44986447 4.02815499,5.49552935 3.9023001,5.42286699 L3.47334425,5.17520922 C3.35265082,5.10552684 3.31177959,4.95036296 3.38269863,4.82752759 L4.62692032,2.67247241 Z M5.92595842,3.42247241 C5.99658965,3.30013553 6.14652747,3.25447065 6.27238235,3.32713301 L6.7013382,3.57479078 C6.82203163,3.64447316 6.86290286,3.79963704 6.79198382,3.92247241 L5.54776214,6.07752759 C5.47713091,6.19986447 5.32719309,6.24552935 5.2013382,6.17286699 L4.77238235,5.92520922 C4.65168893,5.85552684 4.6108177,5.70036296 4.68173673,5.57752759 L5.92595842,3.42247241 Z" id="Rectangle-278" fill="url(#linearGradient-6)" opacity="0.75"></path>
        </g>
    </g>
</svg>

<svg width="21" height="15" xmlns="http://www.w3.org/2000/svg" xmlns:xlink="http://www.w3.org/1999/xlink"><defs><linearGradient x1="50%" y1="0%" x2="50%" y2="100%" id="a"><stop stop-color="#FFF" offset="0%"/><stop stop-color="#F0F0F0" offset="100%"/></linearGradient><linearGradient x1="50%" y1="0%" x2="50%" y2="100%" id="c"><stop stop-color="#E01B41" offset="0%"/><stop stop-color="#C51335" offset="100%"/></linearGradient><linearGradient x1="50%" y1="0%" x2="50%" y2="100%" id="d"><stop stop-color="#0E4B9C" offset="0%"/><stop stop-color="#053677" offset="100%"/></linearGradient><linearGradient x1="50%" y1="0%" x2="50%" y2="100%" id="f"><stop stop-color="#262626" offset="0%"/><stop stop-color="#0D0D0D" offset="100%"/></linearGradient><circle id="b" cx="3.5" cy="3.5" r="3.5"/></defs><g fill="none" fill-rule="evenodd"><path fill="url(#a)" d="M0 0h21v15H0z"/><g transform="translate(7 4)"><mask id="e" fill="#fff"><use xlink:href="#b"/></mask><use fill="url(#c)" xlink:href="#b"/><path d="M0 4c1 .937 2.5 1.5 3.5 0s3-1.5 3.5 0 0 3 0 3H0s-1-3.937 0-3z" fill="url(#d)" mask="url(#e)"/></g><path d="M14.208 3.922a.25.25 0 0 1 .09-.347l.43-.248a.254.254 0 0 1 .346.095l1.244 2.156a.25.25 0 0 1-.09.347l-.43.248a.254.254 0 0 1-.346-.095l-1.244-2.156zm1.3-.75a.25.25 0 0 1 .09-.347l.429-.248a.254.254 0 0 1 .346.095l1.244 2.156a.25.25 0 0 1-.09.347l-.43.248a.254.254 0 0 1-.346-.095l-1.244-2.156zm-12.125 7a.25.25 0 0 1 .09-.347l.43-.248a.254.254 0 0 1 .346.095l1.244 2.156a.25.25 0 0 1-.09.347l-.43.248a.254.254 0 0 1-.346-.095l-1.244-2.156zm1.299-.75a.25.25 0 0 1 .09-.347l.43-.248a.254.254 0 0 1 .346.095l1.244 2.156a.25.25 0 0 1-.09.347l-.43.248a.254.254 0 0 1-.346-.095L4.682 9.422zm10.77-.5a.25.25 0 0 1 .347-.095l.429.248c.12.07.161.225.09.347l-1.244 2.156a.25.25 0 0 1-.346.095l-.43-.248a.254.254 0 0 1-.09-.347l1.244-2.156zm1.3.75a.25.25 0 0 1 .346-.095l.429.248c.12.07.161.225.09.347l-1.244 2.156a.25.25 0 0 1-.346.095l-.43-.248a.254.254 0 0 1-.09-.347l1.244-2.156zm-12.125-7a.25.25 0 0 1 .346-.095l.43.248c.12.07.16.225.09.347L4.249 5.328a.25.25 0 0 1-.347.095l-.429-.248a.254.254 0 0 1-.09-.347l1.244-2.156zm1.299.75a.25.25 0 0 1 .346-.095l.43.248c.12.07.16.225.09.347L5.548 6.078a.25.25 0 0 1-.347.095l-.429-.248a.254.254 0 0 1-.09-.347l1.244-2.156z" fill="url(#f)" opacity=".75"/></g></svg>
